propusk-quiz/img/icons/about-card-icon-02.svg

<svg width="34" height="31" fill="none" xmlns="http://www.w3.org/2000/svg"><path d="M6.5 12.5v18h-6v-18h6zm6 18a3 3 0 01-3-3v-15c0-.825.33-1.575.885-2.115L20.255.5l1.59 1.59c.405.405.66.96.66 1.575l-.045.48L21.035 11H30.5a3 3 0 013 3v3c0 .39-.075.75-.21 1.095L28.76 28.67A2.98 2.98 0 0126 30.5H12.5zm0-3h13.545L30.5 17v-3H17.315l1.695-7.98-6.51 6.525V27.5z" fill="#000"/></svg>

<svg width="34" height="31" viewBox="0 0 34 31" fill="none" xmlns="http://www.w3.org/2000/svg">
<path d="M6.5 12.5V30.5H0.5V12.5H6.5ZM12.5 30.5C11.7044 30.5 10.9413 30.1839 10.3787 29.6213C9.81607 29.0587 9.5 28.2956 9.5 27.5V12.5C9.5 11.675 9.83 10.925 10.385 10.385L20.255 0.5L21.845 2.09C22.25 2.495 22.505 3.05 22.505 3.665L22.46 4.145L21.035 11H30.5C32.165 11 33.5 12.35 33.5 14V17C33.5 17.39 33.425 17.75 33.29 18.095L28.76 28.67C28.31 29.75 27.245 30.5 26 30.5H12.5ZM12.5 27.5H26.045L30.5 17V14H17.315L19.01 6.02L12.5 12.545V27.5Z" fill="black"/>
</svg>
